!!!OTL: WENN ICH EINST DAS ZIEL ERRUNGEN HABE
!!!ARE: Europa, Mitteleuropa, Deutschland
!!!SCT: F1041
!!!YEM: Copyright 1995, estate of Helmut Schaffrath.
**kern
*ICvox
*Ivox
*M3/4
*k[b-e-a-]
*E-:
{16b-
16cc
16a-
16f
=1
8e-
8e-
8g
8b-
8ee-
16dd
16cc
=2
8.b-
16a-
8a-
8r}
{8a-
8g
=3
8f
8g
8a-
8b-
8cc
16b-
16a-
=4
4g}
{4.ee-
16dd
16cc
=5
8.b-
16an
8an
8an
16an
16cc
16cc
16ee-
=6
8.dd
16a-
4a-}
{8g
8g
=7
16f
16cc
16a-
16f
16e-
16g
16g
16b-
16a-
16f
8d
=8
4e-
4r}
==
!!!AGN: Trost - Lied
!!!ONB: ESAC (Essen Associative Code) Database: FINK
!!!AMT: simple triple
!!!AIN: vox
!!!EED: Helmut Schaffrath
!!!EEV: 1.0
*-
